svg/fluentui-system-icons/ic_fluent_font_decrease_20_regular.svg

<svg width="20" height="20" viewBox="0 0 20 20" fill="none" xmlns="http://www.w3.org/2000/svg">
<path d="M13.1465 2.14645C13.3418 1.95118 13.6584 1.95118 13.8536 2.14645L15.5 3.79288L17.1465 2.14645C17.3417 1.95118 17.6583 1.95118 17.8536 2.14645C18.0488 2.34171 18.0488 2.65829 17.8536 2.85355L15.8536 4.85353C15.6583 5.04879 15.3418 5.04879 15.1465 4.85353L13.1465 2.85355C12.9513 2.65829 12.9513 2.34171 13.1465 2.14645ZM10 3.99998C10.2031 3.99998 10.3859 4.12275 10.4628 4.31066L14.9627 15.3106C15.0673 15.5661 14.9448 15.8581 14.6893 15.9626C14.4337 16.0672 14.1417 15.9448 14.0372 15.6892L12.5001 11.9318V11.9999H7.5002V11.9313L5.96289 15.6892C5.85833 15.9448 5.56639 16.0672 5.31081 15.9626C5.05523 15.8581 4.9328 15.5661 5.03736 15.3106L9.53727 4.31066C9.61414 4.12275 9.79701 3.99998 10 3.99998ZM7.88121 10.9999H12.1189L10 5.8205L7.88121 10.9999Z" fill="#212121"/>
</svg>

<svg xmlns="http://www.w3.org/2000/svg" width="20" height="20"><path d="M13.146 2.146a.5.5 0 0 1 .708 0L15.5 3.793l1.646-1.647a.5.5 0 1 1 .708.708l-2 2a.5.5 0 0 1-.707 0l-2-2a.5.5 0 0 1 0-.708ZM10 4a.5.5 0 0 1 .463.31l4.5 11a.5.5 0 1 1-.926.38L12.5 11.931V12h-5v-.069L5.963 15.69a.5.5 0 1 1-.926-.378l4.5-11A.5.5 0 0 1 10 4Zm-2.119 7h4.238L10 5.82 7.881 11Z"/></svg>
